modules/hawcons-filled/icons/file-ods.svg

<?xml version="1.0" encoding="UTF-8" standalone="no"?>
<svg width="32px" height="32px" viewBox="0 0 32 32" version="1.1" xmlns="http://www.w3.org/2000/svg" xmlns:xlink="http://www.w3.org/1999/xlink" xmlns:sketch="http://www.bohemiancoding.com/sketch/ns">
    <!-- Generator: Sketch 3.0.3 (7891) - http://www.bohemiancoding.com/sketch -->
    <title>icon 45 file ods</title>
    <desc>Created with Sketch.</desc>
    <defs></defs>
    <g id="Page-1" stroke="none" stroke-width="1" fill="none" fill-rule="evenodd" sketch:type="MSPage">
        <g id="icon-45-file-ods" sketch:type="MSArtboardGroup" fill="#929292">
            <path d="M8.00684834,10 C6.34621185,10 5,11.3422643 5,12.9987856 L5,20.0012144 C5,21.6573979 6.33599155,23 8.00684834,23 L24.9931517,23 C26.6537881,23 28,21.6577357 28,20.0012144 L28,12.9987856 C28,11.3426021 26.6640085,10 24.9931517,10 L8.00684834,10 L8.00684834,10 Z M10.0048815,13 C8.89761602,13 8,13.8865548 8,15.0059191 L8,17.9940809 C8,19.1019194 8.8938998,20 10.0048815,20 L10.9951185,20 C12.102384,20 13,19.1134452 13,17.9940809 L13,15.0059191 C13,13.8980806 12.1061002,13 10.9951185,13 L10.0048815,13 L10.0048815,13 Z M9.99895656,14 C9.44724809,14 9,14.4437166 9,14.9998075 L9,18.0001925 C9,18.5523709 9.44266033,19 9.99895656,19 L11.0010434,19 C11.5527519,19 12,18.5562834 12,18.0001925 L12,14.9998075 C12,14.4476291 11.5573397,14 11.0010434,14 L9.99895656,14 L9.99895656,14 Z M14,13 L14,20 L16.9951185,20 C18.102384,20 19,19.1134452 19,17.9940809 L19,15.0059191 C19,13.8980806 18.1061002,13 16.9951185,13 L14,13 L14,13 Z M15,14 L15,19 L17.0010434,19 C17.5527519,19 18,18.5562834 18,18.0001925 L18,14.9998075 C18,14.4476291 17.5573397,14 17.0010434,14 L15,14 L15,14 Z M22.0048815,13 C20.897616,13 20,13.8877296 20,15 C20,16.1045695 20.8877296,17 22,17 L22.9906311,17 C23.5480902,17 24,17.4438648 24,18 C24,18.5522847 23.5573397,19 23.0010434,19 L21.9989566,19 C21.4472481,19 21,18.543716 21,18.0044713 L21,17.9931641 L20,17.9931641 L20,17.998921 C20,19.1040864 20.8938998,20 22.0048815,20 L22.9951185,20 C24.102384,20 25,19.1122704 25,18 C25,16.8954305 24.1122704,16 23,16 L22.0093689,16 C21.4519098,16 21,15.5561352 21,15 C21,14.4477153 21.4426603,14 21.9989566,14 L23.0010434,14 C23.5527519,14 24,14.453186 24,15 L25,15 C25,13.8954305 24.1061002,13 22.9951185,13 L22.0048815,13 L22.0048815,13 Z" id="file-ods" sketch:type="MSShapeGroup"></path>
        </g>
    </g>
</svg>

<svg width="32" height="32" viewBox="0 0 32 32" xmlns="http://www.w3.org/2000/svg"><path d="M8.007 10A3.003 3.003 0 0 0 5 12.999V20A2.996 2.996 0 0 0 8.007 23h16.986A3.003 3.003 0 0 0 28 20.001V13A2.996 2.996 0 0 0 24.993 10H8.007zm1.998 3A1.998 1.998 0 0 0 8 15.006v2.988C8 19.102 8.894 20 10.005 20h.99A1.998 1.998 0 0 0 13 17.994v-2.988A2.003 2.003 0 0 0 10.995 13h-.99zm-.006 1A.997.997 0 0 0 9 15v3c0 .552.443 1 .999 1h1.002A.997.997 0 0 0 12 18v-3c0-.552-.443-1-.999-1H9.999zM14 13v7h2.995A1.998 1.998 0 0 0 19 17.994v-2.988A2.003 2.003 0 0 0 16.995 13H14zm1 1v5h2.001A.997.997 0 0 0 18 18v-3c0-.552-.443-1-.999-1H15zm7.005-1A1.998 1.998 0 0 0 20 15c0 1.105.888 2 2 2h.99c.558 0 1.01.444 1.01 1 0 .552-.443 1-.999 1h-1.002c-.552 0-.999-.456-.999-.996v-.01h-1v.005A2 2 0 0 0 22.005 20h.99A1.998 1.998 0 0 0 25 18c0-1.105-.888-2-2-2h-.99c-.558 0-1.01-.444-1.01-1 0-.552.443-1 .999-1h1.002c.552 0 .999.453.999 1h1a2 2 0 0 0-2.005-2h-.99z" fill="#929292" fill-rule="evenodd"/></svg>
